X: 1
T: Whiskey Jack
C: Nini Ury
R: jig
Z: 2018 John Chambers <jc:trillian.mit.edu>
M: 6/8
L: 1/8
K: Em
B |\
"Em"e3 ded | "G"B3 A2G | "D"F2D  F2A | d3 "B"B^c^d |\
"Em"e3 ded | "G"B3 A2G | "B"B,2B BcB | "Em"E3 E4 :|
|: B |\
"E"^G2E EFG | "A"A3 A2G | "D"F2D DEF | "G"G3 G3 |\
"C"E2e  edc |"G"B2A G2A | "B"BcB BcB | "E"E3 E2 :|
